Newaita-dark/.places-ubuntu/24/user-trash.svg

<?xml version="1.0" encoding="UTF-8"?>
<svg xmlns="http://www.w3.org/2000/svg" xmlns:xlink="http://www.w3.org/1999/xlink" width="24pt" height="24pt" viewBox="0 0 24 24" version="1.1">
<defs>
<linearGradient id="linear0" gradientUnits="userSpaceOnUse" x1="254" y1="233.5" x2="254" y2="254.666672" gradientTransform="matrix(0.0468795,0,0,0.0468795,-0.0000028613,10.079089)">
<stop offset="0" style="stop-color:rgb(0%,0%,0%);stop-opacity:0.27451;"/>
<stop offset="1" style="stop-color:rgb(0%,0%,0%);stop-opacity:0;"/>
</linearGradient>
<radialGradient id="radial0" gradientUnits="userSpaceOnUse" cx="450.908936" cy="189.579361" fx="450.908936" fy="189.579361" r="21.166656" gradientTransform="matrix(0.000000130628,-0.0585994,-0.105479,-0.0000000761539,37.113424,47.696499)">
<stop offset="0" style="stop-color:rgb(0%,0%,0%);stop-opacity:0.313725;"/>
<stop offset="0.222222" style="stop-color:rgb(0%,0%,0%);stop-opacity:0.27451;"/>
<stop offset="1" style="stop-color:rgb(0%,0%,0%);stop-opacity:0;"/>
</radialGradient>
<radialGradient id="radial1" gradientUnits="userSpaceOnUse" cx="450.908936" cy="189.579361" fx="450.908936" fy="189.579361" r="21.166656" gradientTransform="matrix(-0.000000130628,0.0585994,0.105479,0.0000000761539,-13.298649,-5.645609)">
<stop offset="0" style="stop-color:rgb(0%,0%,0%);stop-opacity:0.313725;"/>
<stop offset="0.222222" style="stop-color:rgb(0%,0%,0%);stop-opacity:0.27451;"/>
<stop offset="1" style="stop-color:rgb(0%,0%,0%);stop-opacity:0;"/>
</radialGradient>
<radialGradient id="radial2" gradientUnits="userSpaceOnUse" cx="450.908936" cy="189.579361" fx="450.908936" fy="189.579361" r="21.166656" gradientTransform="matrix(-0.000000130628,-0.0585994,0.105479,-0.0000000761539,-13.298649,47.696499)">
<stop offset="0" style="stop-color:rgb(0%,0%,0%);stop-opacity:0.313725;"/>
<stop offset="0.222222" style="stop-color:rgb(0%,0%,0%);stop-opacity:0.27451;"/>
<stop offset="1" style="stop-color:rgb(0%,0%,0%);stop-opacity:0;"/>
</radialGradient>
<radialGradient id="radial3" gradientUnits="userSpaceOnUse" cx="450.908936" cy="189.579361" fx="450.908936" fy="189.579361" r="21.166656" gradientTransform="matrix(0.000000130628,0.0585994,-0.105479,0.0000000761539,37.113423,-5.64561)">
<stop offset="0" style="stop-color:rgb(0%,0%,0%);stop-opacity:0.313725;"/>
<stop offset="0.222222" style="stop-color:rgb(0%,0%,0%);stop-opacity:0.27451;"/>
<stop offset="1" style="stop-color:rgb(0%,0%,0%);stop-opacity:0;"/>
</radialGradient>
<linearGradient id="linear1" gradientUnits="userSpaceOnUse" x1="254" y1="-105.166672" x2="254" y2="233.5" gradientTransform="matrix(0.0468795,0,0,0.0468795,0,10.079087)">
<stop offset="0" style="stop-color:rgb(100%,54.117647%,39.607843%);stop-opacity:1;"/>
<stop offset="1" style="stop-color:rgb(100%,43.921569%,26.27451%);stop-opacity:1;"/>
</linearGradient>
<linearGradient id="linear2" gradientUnits="userSpaceOnUse" x1="254" y1="233.5" x2="254" y2="-168.666656" gradientTransform="matrix(1,0,0,1,0,0)">
<stop offset="0" style="stop-color:rgb(40.392157%,22.745098%,71.764706%);stop-opacity:1;"/>
<stop offset="1" style="stop-color:rgb(49.411765%,34.117647%,76.078431%);stop-opacity:1;"/>
</linearGradient>
<linearGradient id="linear3" gradientUnits="userSpaceOnUse" x1="285.75" y1="191.166672" x2="285.75" y2="-147.5" gradientTransform="matrix(1,0,0,1,0,0)">
<stop offset="0" style="stop-color:rgb(100%,54.117647%,39.607843%);stop-opacity:1;"/>
<stop offset="1" style="stop-color:rgb(100%,43.921569%,26.27451%);stop-opacity:1;"/>
</linearGradient>
<linearGradient id="linear4" gradientUnits="userSpaceOnUse" x1="253.999985" y1="233.5" x2="253.999985" y2="-105.166672" gradientTransform="matrix(1,0,0,1,84.666679,0)">
<stop offset="0" style="stop-color:rgb(40.392157%,22.745098%,71.764706%);stop-opacity:1;"/>
<stop offset="1" style="stop-color:rgb(49.411765%,34.117647%,76.078431%);stop-opacity:1;"/>
</linearGradient>
<linearGradient id="linear5" gradientUnits="userSpaceOnUse" x1="275.166656" y1="233.5" x2="275.166656" y2="-105.166672" gradientTransform="matrix(1,0,0,1,0,0)">
<stop offset="0" style="stop-color:rgb(40.392157%,22.745098%,71.764706%);stop-opacity:1;"/>
<stop offset="1" style="stop-color:rgb(49.411765%,34.117647%,76.078431%);stop-opacity:1;"/>
</linearGradient>
<linearGradient id="linear6" gradientUnits="userSpaceOnUse" x1="253.999985" y1="233.5" x2="253.999985" y2="-105.166656" gradientTransform="matrix(1,0,0,1,-84.666656,0)">
<stop offset="0" style="stop-color:rgb(40.392157%,22.745098%,71.764706%);stop-opacity:1;"/>
<stop offset="1" style="stop-color:rgb(49.411765%,34.117647%,76.078431%);stop-opacity:1;"/>
</linearGradient>
</defs>
<g id="surface1">
<path style=" stroke:none;fill-rule:nonzero;fill:url(#linear0);" d="M 6.449219 21.027344 L 17.363281 21.027344 L 17.363281 22.019531 L 6.449219 22.019531 Z M 6.449219 21.027344 "/>
<path style=" stroke:none;fill-rule:nonzero;fill:url(#radial0);" d="M 17.363281 21.027344 L 19.347656 21.027344 L 19.347656 20.03125 L 17.363281 20.03125 Z M 17.363281 21.027344 "/>
<path style=" stroke:none;fill-rule:nonzero;fill:url(#radial1);" d="M 6.449219 21.027344 L 4.464844 21.027344 L 4.464844 22.019531 L 6.449219 22.019531 Z M 6.449219 21.027344 "/>
<path style=" stroke:none;fill-rule:nonzero;fill:url(#radial2);" d="M 6.449219 21.027344 L 4.464844 21.027344 L 4.464844 20.03125 L 6.449219 20.03125 Z M 6.449219 21.027344 "/>
<path style=" stroke:none;fill-rule:nonzero;fill:url(#radial3);" d="M 17.363281 21.027344 L 19.347656 21.027344 L 19.347656 22.019531 L 17.363281 22.019531 Z M 17.363281 21.027344 "/>
<path style=" stroke:none;fill-rule:nonzero;fill:url(#linear1);" d="M 5.457031 5.148438 L 18.355469 5.148438 C 18.90625 5.148438 19.347656 5.59375 19.347656 6.140625 L 19.347656 20.03125 C 19.347656 20.582031 18.90625 21.027344 18.355469 21.027344 L 5.457031 21.027344 C 4.910156 21.027344 4.464844 20.582031 4.464844 20.03125 L 4.464844 6.140625 C 4.464844 5.59375 4.910156 5.148438 5.457031 5.148438 Z M 5.457031 5.148438 "/>
<path style=" stroke:none;fill-rule:nonzero;fill:rgb(0%,0%,0%);fill-opacity:0.196078;" d="M 4.464844 18.917969 L 19.347656 18.917969 L 19.347656 19.039062 L 4.464844 19.039062 Z M 4.464844 18.917969 "/>
<path style=" stroke:none;fill-rule:nonzero;fill:rgb(90.196079%,90.196079%,90.196079%);fill-opacity:0.588235;" d="M 4.464844 19.039062 L 19.347656 19.039062 L 19.347656 19.164062 L 4.464844 19.164062 Z M 4.464844 19.039062 "/>
<path style=" stroke:none;fill-rule:nonzero;fill:rgb(12.941177%,12.941177%,12.941177%);fill-opacity:0.992157;" d="M 4.464844 18.980469 L 19.347656 18.980469 L 19.347656 19.101562 L 4.464844 19.101562 Z M 4.464844 18.980469 "/>
<path style="fill-rule:nonzero;fill:url(#linear2);stroke-width:3;stroke-linecap:round;stroke-linejoin:miter;stroke:rgb(12.941177%,12.941177%,12.941177%);stroke-opacity:1;stroke-miterlimit:4;" d="M 253.975747 -168.671091 C 265.724625 -168.671091 275.140392 -159.171998 275.140392 -147.506445 C 275.140392 -135.840893 265.724625 -126.3418 253.975747 -126.3418 C 242.310194 -126.3418 232.811101 -135.840893 232.811101 -147.506445 C 232.811101 -159.171998 242.310194 -168.671091 253.975747 -168.671091 Z M 253.975747 -168.671091 " transform="matrix(0.0468795,0,0,0.0468795,0,10.079087)"/>
<path style="fill-rule:nonzero;fill:url(#linear3);stroke-width:3;stroke-linecap:round;stroke-linejoin:miter;stroke:rgb(12.941177%,12.941177%,12.941177%);stroke-opacity:1;stroke-miterlimit:4;" d="M 105.823228 -147.506445 L 402.128265 -147.506445 C 413.877143 -147.506445 423.292911 -138.007352 423.292911 -126.3418 C 423.292911 -114.676247 413.877143 -105.177154 402.128265 -105.177154 L 105.823228 -105.177154 C 94.157675 -105.177154 84.658582 -114.676247 84.658582 -126.3418 C 84.658582 -138.007352 94.157675 -147.506445 105.823228 -147.506445 Z M 105.823228 -147.506445 " transform="matrix(0.0468795,0,0,0.0468795,0,10.079087)"/>
<path style="fill-rule:nonzero;fill:url(#linear4);stroke-width:3;stroke-linecap:round;stroke-linejoin:miter;stroke:rgb(12.941177%,12.941177%,12.941177%);stroke-opacity:1;stroke-miterlimit:4;" d="M 338.634329 -62.847863 C 350.383207 -62.847863 359.798974 -53.34877 359.798974 -41.683218 L 359.798974 148.798592 C 359.798974 160.54747 350.383207 169.963238 338.634329 169.963238 C 326.968776 169.963238 317.469683 160.54747 317.469683 148.798592 L 317.469683 -41.683218 C 317.469683 -53.34877 326.968776 -62.847863 338.634329 -62.847863 Z M 338.634329 -62.847863 " transform="matrix(0.0468795,0,0,0.0468795,0,10.079087)"/>
<path style=" stroke:none;fill-rule:nonzero;fill:rgb(90.196079%,90.196079%,90.196079%);fill-opacity:0.392157;" d="M 4.960938 3.234375 C 4.410156 3.234375 3.96875 3.675781 3.96875 4.226562 L 3.96875 4.351562 C 3.96875 3.800781 4.410156 3.359375 4.960938 3.359375 L 18.851562 3.359375 C 19.402344 3.359375 19.84375 3.800781 19.84375 4.351562 L 19.84375 4.226562 C 19.84375 3.675781 19.402344 3.234375 18.851562 3.234375 Z M 4.960938 3.234375 "/>
<path style=" stroke:none;fill-rule:nonzero;fill:rgb(0%,0%,0%);fill-opacity:0.196078;" d="M 4.960938 5.074219 C 4.410156 5.074219 3.96875 4.632812 3.96875 4.082031 L 3.96875 3.957031 C 3.96875 4.507812 4.410156 4.949219 4.960938 4.949219 L 18.851562 4.949219 C 19.402344 4.949219 19.84375 4.507812 19.84375 3.957031 L 19.84375 4.082031 C 19.84375 4.632812 19.402344 5.074219 18.851562 5.074219 Z M 4.960938 5.074219 "/>
<path style=" stroke:none;fill-rule:nonzero;fill:rgb(20%,20%,20%);fill-opacity:1;" d="M 4.960938 3.09375 C 4.375 3.09375 3.898438 3.570312 3.898438 4.15625 C 3.898438 4.742188 4.375 5.21875 4.960938 5.21875 L 18.851562 5.21875 C 19.441406 5.21875 19.914062 4.742188 19.914062 4.15625 C 19.914062 3.570312 19.441406 3.09375 18.851562 3.09375 Z M 4.960938 3.234375 L 18.851562 3.234375 C 19.367188 3.234375 19.773438 3.644531 19.773438 4.15625 C 19.773438 4.667969 19.367188 5.078125 18.851562 5.078125 L 4.960938 5.078125 C 4.449219 5.078125 4.039062 4.667969 4.039062 4.15625 C 4.039062 3.644531 4.449219 3.234375 4.960938 3.234375 Z M 4.960938 3.234375 "/>
<path style=" stroke:none;fill-rule:nonzero;fill:rgb(90.196079%,90.196079%,90.196079%);fill-opacity:0.392157;" d="M 5.457031 5.214844 C 4.90625 5.214844 4.464844 5.65625 4.464844 6.207031 L 4.464844 6.332031 C 4.464844 5.78125 4.90625 5.339844 5.457031 5.339844 L 18.355469 5.339844 C 18.90625 5.339844 19.347656 5.78125 19.347656 6.332031 L 19.347656 6.207031 C 19.347656 5.65625 18.90625 5.214844 18.355469 5.214844 Z M 5.457031 5.214844 "/>
<path style=" stroke:none;fill-rule:nonzero;fill:rgb(0%,0%,0%);fill-opacity:0.196078;" d="M 5.457031 20.949219 C 4.90625 20.949219 4.464844 20.507812 4.464844 19.957031 L 4.464844 19.835938 C 4.464844 20.382812 4.90625 20.828125 5.457031 20.828125 L 18.355469 20.828125 C 18.90625 20.828125 19.347656 20.382812 19.347656 19.835938 L 19.347656 19.957031 C 19.347656 20.507812 18.90625 20.949219 18.355469 20.949219 Z M 5.457031 20.949219 "/>
<path style="fill:none;stroke-width:3;stroke-linecap:round;stroke-linejoin:miter;stroke:rgb(12.941177%,12.941177%,12.941177%);stroke-opacity:1;stroke-miterlimit:4;" d="M 116.40555 -105.177154 L 391.545943 -105.177154 C 403.294821 -105.177154 412.710588 -95.678061 412.710588 -84.012509 L 412.710588 212.292529 C 412.710588 224.041407 403.294821 233.5405 391.545943 233.5405 L 116.40555 233.5405 C 104.739998 233.5405 95.240905 224.041407 95.240905 212.292529 L 95.240905 -84.012509 C 95.240905 -95.678061 104.739998 -105.177154 116.40555 -105.177154 Z M 116.40555 -105.177154 " transform="matrix(0.0468795,0,0,0.0468795,0,10.079087)"/>
<path style="fill-rule:nonzero;fill:url(#linear5);stroke-width:3;stroke-linecap:round;stroke-linejoin:miter;stroke:rgb(12.941177%,12.941177%,12.941177%);stroke-opacity:1;stroke-miterlimit:4;" d="M 253.975747 -62.847863 C 265.724625 -62.847863 275.140392 -53.34877 275.140392 -41.683218 L 275.140392 148.798592 C 275.140392 160.54747 265.724625 169.963238 253.975747 169.963238 C 242.310194 169.963238 232.811101 160.54747 232.811101 148.798592 L 232.811101 -41.683218 C 232.811101 -53.34877 242.310194 -62.847863 253.975747 -62.847863 Z M 253.975747 -62.847863 " transform="matrix(0.0468795,0,0,0.0468795,0,10.079087)"/>
<path style="fill-rule:nonzero;fill:url(#linear6);stroke-width:3;stroke-linecap:round;stroke-linejoin:miter;stroke:rgb(12.941177%,12.941177%,12.941177%);stroke-opacity:1;stroke-miterlimit:4;" d="M 169.317164 -62.847863 C 180.982717 -62.847863 190.48181 -53.34877 190.48181 -41.683218 L 190.48181 148.798592 C 190.48181 160.54747 180.982717 169.963238 169.317164 169.963238 C 157.651612 169.963238 148.152519 160.54747 148.152519 148.798592 L 148.152519 -41.683218 C 148.152519 -53.34877 157.651612 -62.847863 169.317164 -62.847863 Z M 169.317164 -62.847863 " transform="matrix(0.0468795,0,0,0.0468795,0,10.079087)"/>
</g>
</svg>

<svg xmlns="http://www.w3.org/2000/svg" width="32" height="32" viewBox="0 0 24 24"><defs><linearGradient id="a" gradientUnits="userSpaceOnUse" x1="254" y1="233.5" x2="254" y2="254.667" gradientTransform="matrix(.04688 0 0 .04688 0 10.08)"><stop offset="0" stop-opacity=".275"/><stop offset="1" stop-opacity="0"/></linearGradient><radialGradient id="b" gradientUnits="userSpaceOnUse" cx="450.909" cy="189.579" fx="450.909" fy="189.579" r="21.167" gradientTransform="matrix(0 -.0586 -.10548 0 37.113 47.696)"><stop offset="0" stop-opacity=".314"/><stop offset=".222" stop-opacity=".275"/><stop offset="1" stop-opacity="0"/></radialGradient><radialGradient id="c" gradientUnits="userSpaceOnUse" cx="450.909" cy="189.579" fx="450.909" fy="189.579" r="21.167" gradientTransform="matrix(0 .0586 .10548 0 -13.299 -5.646)"><stop offset="0" stop-opacity=".314"/><stop offset=".222" stop-opacity=".275"/><stop offset="1" stop-opacity="0"/></radialGradient><radialGradient id="d" gradientUnits="userSpaceOnUse" cx="450.909" cy="189.579" fx="450.909" fy="189.579" r="21.167" gradientTransform="matrix(0 -.0586 .10548 0 -13.299 47.696)"><stop offset="0" stop-opacity=".314"/><stop offset=".222" stop-opacity=".275"/><stop offset="1" stop-opacity="0"/></radialGradient><radialGradient id="e" gradientUnits="userSpaceOnUse" cx="450.909" cy="189.579" fx="450.909" fy="189.579" r="21.167" gradientTransform="matrix(0 .0586 -.10548 0 37.113 -5.646)"><stop offset="0" stop-opacity=".314"/><stop offset=".222" stop-opacity=".275"/><stop offset="1" stop-opacity="0"/></radialGradient><linearGradient id="f" gradientUnits="userSpaceOnUse" x1="254" y1="-105.167" x2="254" y2="233.5" gradientTransform="matrix(.04688 0 0 .04688 0 10.08)"><stop offset="0" stop-color="#ff8a65"/><stop offset="1" stop-color="#ff7043"/></linearGradient><linearGradient id="g" gradientUnits="userSpaceOnUse" x1="254" y1="233.5" x2="254" y2="-168.667"><stop offset="0" stop-color="#673ab7"/><stop offset="1" stop-color="#7e57c2"/></linearGradient><linearGradient id="h" gradientUnits="userSpaceOnUse" x1="285.75" y1="191.167" x2="285.75" y2="-147.5"><stop offset="0" stop-color="#ff8a65"/><stop offset="1" stop-color="#ff7043"/></linearGradient><linearGradient id="i" gradientUnits="userSpaceOnUse" x1="254" y1="233.5" x2="254" y2="-105.167" gradientTransform="translate(84.667)"><stop offset="0" stop-color="#673ab7"/><stop offset="1" stop-color="#7e57c2"/></linearGradient><linearGradient id="j" gradientUnits="userSpaceOnUse" x1="275.167" y1="233.5" x2="275.167" y2="-105.167"><stop offset="0" stop-color="#673ab7"/><stop offset="1" stop-color="#7e57c2"/></linearGradient><linearGradient id="k" gradientUnits="userSpaceOnUse" x1="254" y1="233.5" x2="254" y2="-105.167" gradientTransform="translate(-84.667)"><stop offset="0" stop-color="#673ab7"/><stop offset="1" stop-color="#7e57c2"/></linearGradient></defs><path d="M6.45 21.027h10.913v.993H6.45zm0 0" fill="url(#a)"/><path d="M17.363 21.027h1.985v-.996h-1.985zm0 0" fill="url(#b)"/><path d="M6.45 21.027H4.464v.993h1.984zm0 0" fill="url(#c)"/><path d="M6.45 21.027H4.464v-.996h1.984zm0 0" fill="url(#d)"/><path d="M17.363 21.027h1.985v.993h-1.985zm0 0" fill="url(#e)"/><path d="M5.457 5.148h12.898c.551 0 .993.446.993.993v13.89c0 .551-.442.996-.993.996H5.457a.994.994 0 0 1-.992-.996V6.141c0-.547.445-.993.992-.993zm0 0" fill="url(#f)"/><path d="M4.465 18.918h14.883v.121H4.465zm0 0" fill-opacity=".196"/><path d="M4.465 19.04h14.883v.124H4.465zm0 0" fill="#e6e6e6" fill-opacity=".588"/><path d="M4.465 18.98h14.883v.122H4.465zm0 0" fill="#212121" fill-opacity=".992"/><path d="M253.976-168.671c11.749 0 21.164 9.499 21.164 21.165 0 11.665-9.415 21.164-21.164 21.164-11.666 0-21.165-9.499-21.165-21.164 0-11.666 9.5-21.165 21.165-21.165zm0 0" transform="matrix(.04688 0 0 .04688 0 10.08)" fill="url(#g)" stroke-width="3" stroke-linecap="round" stroke="#212121"/><path d="M105.823-147.506h296.305c11.75 0 21.165 9.499 21.165 21.164 0 11.666-9.416 21.165-21.165 21.165H105.823c-11.665 0-21.164-9.5-21.164-21.165s9.499-21.164 21.164-21.164zm0 0" transform="matrix(.04688 0 0 .04688 0 10.08)" fill="url(#h)" stroke-width="3" stroke-linecap="round" stroke="#212121"/><path d="M338.634-62.848c11.75 0 21.165 9.5 21.165 21.165v190.482a21.088 21.088 0 0 1-21.165 21.164c-11.665 0-21.164-9.416-21.164-21.164V-41.683c0-11.666 9.499-21.165 21.164-21.165zm0 0" transform="matrix(.04688 0 0 .04688 0 10.08)" fill="url(#i)" stroke-width="3" stroke-linecap="round" stroke="#212121"/><path d="M4.96 3.234a.989.989 0 0 0-.991.993v.125c0-.551.441-.993.992-.993h13.89c.551 0 .993.442.993.993v-.125a.989.989 0 0 0-.992-.993zm0 0" fill="#e6e6e6" fill-opacity=".392"/><path d="M4.96 5.074a.989.989 0 0 1-.991-.992v-.125c0 .55.441.992.992.992h13.89c.551 0 .993-.441.993-.992v.125c0 .55-.442.992-.992.992zm0 0" fill-opacity=".196"/><path d="M4.96 3.094a1.064 1.064 0 0 0 0 2.125h13.892c.59 0 1.062-.477 1.062-1.063s-.473-1.062-1.062-1.062zm0 .14h13.892c.515 0 .921.41.921.922a.916.916 0 0 1-.921.922H4.96a.919.919 0 0 1-.922-.922c0-.511.41-.922.922-.922zm0 0" fill="#333"/><path d="M5.457 5.215a.989.989 0 0 0-.992.992v.125c0-.55.441-.992.992-.992h12.898c.551 0 .993.441.993.992v-.125a.989.989 0 0 0-.993-.992zm0 0" fill="#e6e6e6" fill-opacity=".392"/><path d="M5.457 20.95a.989.989 0 0 1-.992-.993v-.121c0 .547.441.992.992.992h12.898c.551 0 .993-.445.993-.992v.121c0 .55-.442.992-.993.992zm0 0" fill-opacity=".196"/><path d="M5.457 5.148h12.898c.551 0 .993.446.993.993v13.89c0 .551-.442.996-.993.996H5.457a.994.994 0 0 1-.992-.996V6.141c0-.547.445-.993.992-.993zm0 0" fill="none" stroke-width=".14064" stroke-linecap="round" stroke="#212121"/><path d="M253.976-62.848c11.749 0 21.164 9.5 21.164 21.165v190.482a21.088 21.088 0 0 1-21.164 21.164c-11.666 0-21.165-9.416-21.165-21.164V-41.683c0-11.666 9.5-21.165 21.165-21.165zm0 0" transform="matrix(.04688 0 0 .04688 0 10.08)" fill="url(#j)" stroke-width="3" stroke-linecap="round" stroke="#212121"/><path d="M169.317-62.848c11.666 0 21.165 9.5 21.165 21.165v190.482c0 11.748-9.5 21.164-21.165 21.164s-21.164-9.416-21.164-21.164V-41.683c0-11.666 9.499-21.165 21.164-21.165zm0 0" transform="matrix(.04688 0 0 .04688 0 10.08)" fill="url(#k)" stroke-width="3" stroke-linecap="round" stroke="#212121"/></svg>
